X:1
T:[ID 2-110]
T:[ID 2-110]
T:Bezeichnung standardisiert: Menuet [mit Trio] Menuet Con Trio
T:Urheber unbekannt Datum in der hier transkribierten schriftlichen Quelle: 1767
C:Urheber unbekannt
C:Datum in der hier transkribierten schriftlichen Quelle: 1767
L:1/8
M:3/4
K:Bb
V:1 treble 
V:1
 B2 b2 f2 | d2 fedc | B2 FEDC | B,4 d2 | c4 d2 | c4 dB | c2 F2 =E2 | F6 :: F2 f2 d2 | e2 cBAG | %10
 F2 e2 c2 | d2 cBAG | B,4 (_AF) | G4 ec | d2 B2 A2 | B6 :|[M:3/4]"^Trio" (f2 d2) .f2 | (e3 c) .e2 | %18
 (d2 B2) .d2 |{d} c4 B2 | c/f/=e/d/ c4 | c/f/=e/d/ c4 | cB A2 G2 | F6 :: F2 A2 B2 | (c2 d2) .e2 | %26
 (d2 e2) .f2 | g6 | f/b/a/g/ f4 | f/b/a/g/ f4 | fe d2 c2 | B6 :| %32

